;FLAVOR:Marlin
;TIME:1538
;Filament used: 2.31703m
;Layer height: 0.32
;MINX:79.4
;MINY:91.6
;MINZ:0.32
;MAXX:155.5
;MAXY:144.339
;MAXZ:32
;Generated with Cura_SteamEngine 4.13.1
M140 S50
M105
M190 S50
M104 S200
M105
M109 S200
M82 ;absolute extrusion mode
; Ender 3 Custom Start G-code
G92 E0 ; Reset Extruder
G28 ; Home all axes
G1 Z2.0 F3000 ; Move Z Axis up little to prevent scratching of Heat Bed
G1 X0.1 Y20 Z0.3 F5000.0 ; Move to start position
G1 X0.1 Y200.0 Z0.3 F1500.0 E15 ; Draw the first line
G1 X0.4 Y200.0 Z0.3 F5000.0 ; Move to side a little
G1 X0.4 Y20 Z0.3 F1500.0 E30 ; Draw the second line
G92 E0 ; Reset Extruder
G1 Z2.0 F3000 ; Move Z Axis up little to prevent scratching of Heat Bed
G1 X5 Y20 Z0.3 F5000.0 ; Move over to prevent blob squish
G92 E0
G92 E0
G1 F2700 E-5
;LAYER_COUNT:100
;LAYER:0
M107
;MESH:BirdBoxHolder Attempt 0 v1.stl
G0 F6000 X86.6 Y132 Z0.32
;TYPE:WALL-INNER
G1 F2700 E0
G1 F1200 X86.6 Y142.595 E1.12765
G1 X86 Y142.595 E1.19151
G1 X86 Y132 E2.03831
G1 X86.6 Y132 E2.10217
G0 F6000 X106.667 Y132
G1 F1200 X107.267 Y132 E2.16603
G1 X107.267 Y142.595 E3.29368
G1 X106.667 Y142.595 E3.35754
G1 X106.667 Y132 E4.20434
G0 F6000 X127.333 Y131.999
G1 F1200 X127.933 Y131.999 E4.26819
G1 X127.933 Y142.595 E5.39595
G1 X127.333 Y142.595 E5.45981
G1 X127.333 Y131.999 E6.30669
G0 F6000 X148 Y131.999
G1 F1200 X148.6 Y131.999 E6.37055
G1 X148.6 Y142.595 E7.49831
G1 X148 Y142.595 E7.56217
G1 X148 Y131.999 E8.40904
G1 F2700 E3.40904
G0 F6000 X152.199 Y131.443
G1 F2700 E8.40904
G0 F6000 X152.169 Y131.145
;TYPE:WALL-OUTER
G1 F1200 X152.714 Y130.98 E8.46965
G1 X153.217 Y130.71 E8.53041
G1 X153.657 Y130.346 E8.59119
G1 X154.017 Y129.905 E8.65178
G1 X154.279 Y129.415 E8.71092
G1 X154.445 Y128.869 E8.77166
G1 X154.5 Y128.32 E8.83038
G1 X154.499 Y95.469 E12.32679
G1 X154.446 Y94.934 E12.38401
G1 X154.281 Y94.389 E12.44462
G1 X154.013 Y93.888 E12.50509
G1 X153.652 Y93.448 E12.56566
G1 X153.212 Y93.087 E12.62624
G1 X152.711 Y92.819 E12.68671
G1 X152.166 Y92.654 E12.74732
G1 X151.62 Y92.6 E12.80571
G1 X83.269 Y92.601 E20.08048
G1 X82.734 Y92.654 E20.1377
G1 X82.189 Y92.819 E20.1983
G1 X81.688 Y93.087 E20.25877
G1 X81.248 Y93.448 E20.31935
G1 X80.887 Y93.888 E20.37992
G1 X80.619 Y94.389 E20.4404
G1 X80.454 Y94.934 E20.501
G1 X80.4 Y95.48 E20.5594
G1 X80.4 Y128.32 E24.05464
G1 X80.454 Y128.867 E24.11314
G1 X80.62 Y129.414 E24.17398
G1 X80.89 Y129.917 E24.23474
G1 X81.254 Y130.357 E24.29552
G1 X81.695 Y130.717 E24.35611
G1 X82.185 Y130.979 E24.41525
G1 X82.731 Y131.145 E24.47599
G1 X83.28 Y131.2 E24.53471
G1 X151.632 Y131.199 E31.80958
G1 X152.169 Y131.145 E31.86702
G1 F2700 E26.86702
G0 F6000 X152.199 Y131.443
G0 X128.505 Y131.972
G0 X126.803 Y143.125
G1 F2700 E31.86702
G0 F6000 X126.533 Y143.395
G1 F1200 X126.533 Y132.2 E33.05853
G1 X108.067 Y132.2 E35.02392
G1 X108.067 Y143.395 E36.21543
G1 X105.867 Y143.395 E36.44958
G1 X105.867 Y132.2 E37.64109
G1 X87.4 Y132.2 E39.60658
G1 X87.4 Y143.395 E40.79809
G1 X85.2 Y143.395 E41.03224
G1 X85.2 Y132.2 E42.22375
G1 X83.312 Y132.2 E42.4247
G1 X82.69 Y132.15 E42.49111
G1 X82.087 Y132.005 E42.55712
G1 X81.525 Y131.77 E42.62195
G1 X81.003 Y131.45 E42.68712
G1 X80.539 Y131.052 E42.75218
G1 X80.143 Y130.587 E42.81719
G1 X79.824 Y130.064 E42.88239
G1 X79.589 Y129.496 E42.94781
G1 X79.45 Y128.912 E43.0117
G1 X79.4 Y128.282 E43.07897
G1 X79.401 Y95.5 E46.56804
G1 X79.45 Y94.888 E46.63338
G1 X79.592 Y94.294 E46.69838
G1 X79.826 Y93.731 E46.76327
G1 X80.145 Y93.209 E46.82839
G1 X80.553 Y92.734 E46.89503
G1 X81.009 Y92.345 E46.95882
G1 X81.531 Y92.026 E47.02393
G1 X82.094 Y91.792 E47.08883
G1 X82.688 Y91.65 E47.15383
G1 X83.318 Y91.6 E47.22109
G1 X151.596 Y91.601 E54.48808
G1 X152.212 Y91.65 E54.55385
G1 X152.806 Y91.792 E54.61886
G1 X153.369 Y92.026 E54.68375
G1 X153.891 Y92.345 E54.74886
G1 X154.366 Y92.753 E54.8155
G1 X154.755 Y93.209 E54.8793
G1 X155.074 Y93.731 E54.94441
G1 X155.308 Y94.294 E55.0093
G1 X155.45 Y94.888 E55.0743
G1 X155.5 Y95.517 E55.14146
G1 X155.5 Y128.282 E58.62872
G1 X155.451 Y128.91 E58.69576
G1 X155.305 Y129.513 E58.76179
G1 X155.07 Y130.075 E58.82663
G1 X154.75 Y130.597 E58.89179
G1 X154.352 Y131.061 E58.95685
G1 X153.887 Y131.457 E59.02186
G1 X153.364 Y131.776 E59.08706
G1 X152.796 Y132.011 E59.15249
G1 X152.212 Y132.15 E59.21638
G1 X151.582 Y132.2 E59.28364
G1 X149.4 Y132.2 E59.51588
G1 X149.4 Y143.395 E60.70739
G1 X147.2 Y143.395 E60.94154
G1 X147.2 Y132.2 E62.13305
G1 X128.733 Y132.2 E64.09854
G1 X128.733 Y143.395 E65.29005
G1 X126.533 Y143.395 E65.5242
G0 F6000 X126.803 Y143.125
G0 X126.772 Y131.864
G0 X126.607 Y131.698
;TYPE:SKIN
G1 F1200 X126.042 Y131.698 E65.54859
G1 X107.94 Y131.698 E66.33009
G1 X92.101 Y131.699 E67.01389
G1 X87.047 Y131.736 E67.23208
G1 X83.023 Y131.672 E67.40583
G1 X82.32 Y131.534 E67.43676
G1 X80.906 Y130.687 E67.50792
G1 X80.063 Y129.278 E67.5788
G1 X79.899 Y127.417 E67.65946
G1 X79.899 Y95.739 E69.02705
G1 X80.137 Y94.279 E69.09092
G1 X81.069 Y92.948 E69.16106
G1 X82.135 Y92.317 E69.21454
G1 X83.614 Y92.1 E69.27908
G1 X151.499 Y92.102 E72.2098
G1 X152.941 Y92.413 E72.27348
G1 X154.099 Y93.005 E72.32963
G1 X154.943 Y94.98 E72.42235
G1 X154.998 Y99.561 E72.62014
G1 X154.987 Y128.4 E73.86517
G1 X154.658 Y129.768 E73.92591
G1 X153.637 Y131.01 E73.99532
G1 X152.499 Y131.569 E74.05006
G1 X150.366 Y131.698 E74.14232
G1 X133.962 Y131.699 E74.85051
G1 X128.361 Y131.755 E75.09232
G0 F6000 X127.733 Y132.2
G1 F2700 E70.09232
;MESH:NONMESH
G0 F300 X127.733 Y132.2 Z0.64
G0 F6000 X126.761 Y131.972
G0 X115.538 Y131.972
G0 X86.6 Y132
;TIME_ELAPSED:51.415199
;LAYER:1
M106 S127.5
;TYPE:WALL-INNER
;MESH:BirdBoxHolder Attempt 0 v1.stl
G1 F2700 E75.09232
G1 F1350 X86.6 Y142.6 E76.22051
G1 X86 Y142.6 E76.28437
G1 X86 Y132 E77.13156
G1 X86.6 Y132 E77.19542
G0 F7500 X106.667 Y132
G1 F1350 X107.267 Y132 E77.25928
G1 X107.267 Y142.6 E78.38747
G1 X106.667 Y142.6 E78.45133
G1 X106.667 Y132 E79.29852
G0 F7500 X127.333 Y131.999
G1 F1350 X127.933 Y131.999 E79.36238
G1 X127.933 Y142.6 E80.49067
G1 X127.333 Y142.6 E80.55453
G1 X127.333 Y131.999 E81.40181
G0 F7500 X148 Y131.999
G1 F1350 X148.6 Y131.999 E81.46567
G1 X148.6 Y142.6 E82.59396
G1 X148 Y142.6 E82.65782
G1 X148 Y131.999 E83.50509
G1 F2700 E78.50509
G0 F7500 X152.202 Y131.442
G1 F2700 E83.50509
G0 F7500 X152.172 Y131.144
;TYPE:WALL-OUTER
G1 F1350 X152.653 Y130.999 E83.55856
G1 X152.727 Y130.973 E83.56691
G1 X153.169 Y130.738 E83.62019
G1 X153.235 Y130.696 E83.62852
G1 X153.622 Y130.379 E83.68176
G1 X153.678 Y130.323 E83.69019
G1 X153.995 Y129.936 E83.74343
G1 X154.037 Y129.87 E83.75176
G1 X154.272 Y129.428 E83.80504
G1 X154.298 Y129.354 E83.81339
G1 X154.444 Y128.872 E83.86699
G1 X154.5 Y128.32 E83.92604
G1 X154.5 Y95.48 E87.42128
G1 X154.446 Y94.934 E87.47968
G1 X154.281 Y94.389 E87.54028
G1 X154.013 Y93.888 E87.60076
G1 X153.652 Y93.448 E87.66133
G1 X153.212 Y93.087 E87.72191
G1 X152.711 Y92.819 E87.78238
G1 X152.166 Y92.654 E87.84298
G1 X151.62 Y92.6 E87.90138
G1 X83.28 Y92.6 E95.17497
G1 X82.734 Y92.654 E95.23337
G1 X82.189 Y92.819 E95.29397
G1 X81.688 Y93.087 E95.35445
G1 X81.248 Y93.448 E95.41502
G1 X80.887 Y93.888 E95.4756
G1 X80.619 Y94.389 E95.53607
G1 X80.454 Y94.934 E95.59667
G1 X80.4 Y95.48 E95.65507
G1 X80.4 Y128.32 E99.15031
G1 X80.455 Y128.87 E99.20914
G1 X80.601 Y129.353 E99.26284
G1 X80.627 Y129.427 E99.27119
G1 X80.862 Y129.869 E99.32447
G1 X80.904 Y129.935 E99.3328
G1 X81.221 Y130.322 E99.38604
G1 X81.277 Y130.378 E99.39447
G1 X81.664 Y130.695 E99.44771
G1 X81.73 Y130.737 E99.45604
G1 X82.172 Y130.972 E99.50932
G1 X82.246 Y130.998 E99.51767
G1 X82.728 Y131.144 E99.57127
G1 X83.28 Y131.2 E99.63032
G1 X151.636 Y131.199 E106.90562
G1 X152.172 Y131.144 E106.96296
G1 F2700 E101.96296
G0 F7500 X152.202 Y131.442
G0 X128.505 Y131.972
G0 X126.803 Y143.13
G1 F2700 E106.96296
G0 F7500 X126.533 Y143.4
G1 F1350 X126.533 Y132.2 E108.15501
G1 X108.067 Y132.2 E110.12039
G1 X108.067 Y143.4 E111.31243
G1 X105.867 Y143.4 E111.54658
G1 X105.867 Y132.2 E112.73863
G1 X87.4 Y132.2 E114.70411
G1 X87.4 Y143.4 E115.89616
G1 X85.2 Y143.4 E116.13031
G1 X85.2 Y132.2 E117.32235
G1 X83.318 Y132.2 E117.52266
G1 X82.688 Y132.15 E117.58992
G1 X82.094 Y132.008 E117.65492
G1 X81.531 Y131.774 E117.71981
G1 X81.005 Y131.452 E117.78546
G1 X80.542 Y131.058 E117.85016
G1 X80.148 Y130.595 E117.91487
G1 X79.826 Y130.069 E117.98051
G1 X79.592 Y129.506 E118.0454
G1 X79.45 Y128.912 E118.1104
G1 X79.4 Y128.282 E118.17766
G1 X79.4 Y95.518 E121.66482
G1 X79.45 Y94.888 E121.73208
G1 X79.592 Y94.294 E121.79708
G1 X79.826 Y93.731 E121.86197
G1 X80.148 Y93.205 E121.92761
G1 X80.542 Y92.742 E121.99232
G1 X81.005 Y92.348 E122.05702
G1 X81.531 Y92.026 E122.12266
G1 X82.094 Y91.792 E122.18756
G1 X82.688 Y91.65 E122.25256
G1 X83.318 Y91.6 E122.31982
G1 X151.582 Y91.6 E129.58533
G1 X152.212 Y91.65 E129.65259
G1 X152.806 Y91.792 E129.71759
G1 X153.369 Y92.026 E129.78248
G1 X153.895 Y92.348 E129.84812
G1 X154.358 Y92.742 E129.91283
G1 X154.752 Y93.205 E129.97753
G1 X155.074 Y93.731 E130.04317
G1 X155.308 Y94.294 E130.10807
G1 X155.45 Y94.888 E130.17307
G1 X155.5 Y95.518 E130.24033
G1 X155.5 Y128.282 E133.72748
G1 X155.45 Y128.912 E133.79475
G1 X155.308 Y129.506 E133.85975
G1 X155.074 Y130.069 E133.92464
G1 X154.752 Y130.595 E133.99028
G1 X154.358 Y131.058 E134.05499
G1 X153.895 Y131.452 E134.11969
G1 X153.369 Y131.774 E134.18533
G1 X152.806 Y132.008 E134.25022
G1 X152.212 Y132.15 E134.31523
G1 X151.582 Y132.2 E134.38249
G1 X149.4 Y132.2 E134.61472
G1 X149.4 Y143.4 E135.80677
G1 X147.2 Y143.4 E136.04092
G1 X147.2 Y132.2 E137.23296
G1 X128.733 Y132.2 E139.19845
G1 X128.733 Y143.4 E140.39049
G1 X126.533 Y143.4 E140.62464
G0 F7500 X126.803 Y143.13
G0 X126.761 Y131.972
G0 X126.819 Y131.698
;TYPE:SKIN
G1 F1350 X126.253 Y131.698 E140.64887
G1 X108.151 Y131.698 E141.42382
G1 X107.669 Y131.615 E141.44476
G1 X106.317 Y131.835 E141.5034
G1 X104.757 Y131.698 E141.57044
G1 X83.827 Y131.698 E142.46646
G1 X82.292 Y131.536 E142.53254
G1 X80.879 Y130.686 E142.60313
G1 X80.045 Y129.256 E142.674
G1 X79.899 Y127.14 E142.7648
G1 X79.909 Y95.452 E144.12137
G1 X79.991 Y94.804 E144.14934
G0 F7500 X79.966 Y94.264
G1 F1350 X80.958 Y93.273 E144.22395
G1 X81.073 Y93.157
G1 X82.066 Y92.165 E144.29865
G0 F7500 X82.605 Y92.191
G1 F1350 X83.253 Y92.108 E144.32735
G1 X100.799 Y92.099 E145.09832
G1 X151.144 Y92.099 E147.31046
G1 X152.66 Y92.281 E147.37755
G1 X154.052 Y93.151 E147.44968
G1 X154.868 Y94.598 E147.52267
G1 X154.998 Y96.73 E147.61653
G1 X154.998 Y127.843 E148.98362
G1 X154.888 Y129.085 E149.03841
G1 X153.919 Y130.62 E149.11817
G1 X152.384 Y131.589 E149.19793
G1 X150.011 Y131.698 E149.30231
G1 X148.982 Y131.597 E149.34774
G1 X147.631 Y131.817 E149.40789
G1 X146.051 Y131.699 E149.4775
G1 X128.515 Y131.699 E150.24803
G0 F7500 X127.967 Y132.2
G1 F2700 E145.24803
;MESH:NONMESH
G0 F300 X127.967 Y132.2 Z0.96
G0 F7500 X126.761 Y131.972
G0 X115.538 Y131.972
G0 X86.6 Y132
;TIME_ELAPSED:94.134888
;LAYER:2
M106 S255
;TYPE:WALL-INNER
;MESH:BirdBoxHolder Attempt 0 v1.stl
G1 F2700 E150.24803
G1 F1500 X86.6 Y142.6 E151.37621
G1 X86 Y142.6 E151.44007
G1 X86 Y132 E152.28727
G1 X86.6 Y132 E152.35113
G0 F9000 X106.667 Y132
G1 F1500 X107.267 Y132 E152.41499
G1 X107.267 Y142.6 E153.54317
G1 X106.667 Y142.6 E153.60703
G1 X106.667 Y132 E154.45423
G0 F9000 X127.333 Y132
G1 F1500 X127.933 Y132 E154.51809
G1 X127.933 Y142.6 E155.64627
G1 X127.333 Y142.6 E155.71013
G1 X127.333 Y132 E156.55733
G0 F9000 X148 Y132
G1 F1500 X148.6 Y132 E156.62119
G1 X148.6 Y142.6 E157.74937
G1 X148 Y142.6 E157.81323
G1 X148 Y132 E158.66043
G1 F2700 E153.66043
G0 F9000 X152.206 Y131.442
G1 F2700 E158.66043
G0 F9000 X152.176 Y131.144
;TYPE:WALL-OUTER
G1 F1500 X152.633 Y131.006 E158.71124
G1 X152.731 Y130.972 E158.72228
G1 X153.157 Y130.745 E158.77365
G1 X153.244 Y130.688 E158.78472
G1 X153.612 Y130.387 E158.83532
G1 X153.686 Y130.313 E158.84646
G1 X153.987 Y129.945 E158.89706
G1 X154.044 Y129.858 E158.90813
G1 X154.271 Y129.432 E158.95951
G1 X154.305 Y129.334 E158.97055
G1 X154.444 Y128.876 E159.02149
G1 X154.5 Y128.32 E159.08096
G1 X154.5 Y95.48 E162.57621
G1 X154.446 Y94.934 E162.6346
G1 X154.281 Y94.389 E162.69521
G1 X154.013 Y93.888 E162.75568
G1 X153.652 Y93.448 E162.81625
G1 X153.212 Y93.087 E162.87683
G1 X152.711 Y92.819 E162.9373
G1 X152.166 Y92.654 E162.99791
G1 X151.62 Y92.6 E163.0563
G1 X83.28 Y92.6 E170.3299
G1 X82.734 Y92.654 E170.38829
G1 X82.189 Y92.819 E170.4489
G1 X81.688 Y93.087 E170.50937
G1 X81.248 Y93.448 E170.56994
G1 X80.887 Y93.888 E170.63052
G1 X80.619 Y94.389 E170.69099
G1 X80.454 Y94.934 E170.7516
G1 X80.4 Y95.48 E170.80999
G1 X80.4 Y128.32 E174.30523
G1 X80.455 Y128.875 E174.36459
G1 X80.594 Y129.333 E174.41554
G1 X80.628 Y129.431 E174.42658
G1 X80.855 Y129.857 E174.47795
G1 X80.912 Y129.944 E174.48902
G1 X81.213 Y130.312 E174.53962
G1 X81.287 Y130.386 E174.55076
G1 X81.655 Y130.687 E174.60136
G1 X81.742 Y130.744 E174.61243
G1 X82.168 Y130.971 E174.66381
G1 X82.266 Y131.005 E174.67485
G1 X82.724 Y131.144 E174.72579
G1 X83.28 Y131.2 E174.78526
G1 X151.62 Y131.2 E182.05886
G1 X152.176 Y131.144 E182.11833
G1 F2700 E177.11833
G0 F9000 X152.206 Y131.442
G0 X128.505 Y131.972
G0 X126.803 Y143.13
G1 F2700 E182.11833
G0 F9000 X126.533 Y143.4
G1 F1500 X126.533 Y132.2 E183.31037
G1 X108.067 Y132.2 E185.27576
G1 X108.067 Y143.4 E186.4678
G1 X105.867 Y143.4 E186.70195
G1 X105.867 Y132.2 E187.89399
G1 X87.4 Y132.2 E189.85948
G1 X87.4 Y143.4 E191.05152
G1 X85.2 Y143.4 E191.28568
G1 X85.2 Y132.2 E192.47772
G1 X83.318 Y132.2 E192.67803
G1 X82.688 Y132.15 E192.74529
G1 X82.094 Y132.008 E192.81029
G1 X81.531 Y131.774 E192.87518
G1 X81.005 Y131.452 E192.94082
G1 X80.542 Y131.058 E193.00553
G1 X80.148 Y130.595 E193.07023
G1 X79.826 Y130.069 E193.13587
G1 X79.592 Y129.506 E193.20077
G1 X79.45 Y128.912 E193.26577
G1 X79.4 Y128.282 E193.33303
G1 X79.4 Y95.518 E196.82018
G1 X79.45 Y94.888 E196.88745
G1 X79.592 Y94.294 E196.95245
G1 X79.826 Y93.731 E197.01734
G1 X80.148 Y93.205 E197.08298
G1 X80.542 Y92.742 E197.14769
G1 X81.005 Y92.348 E197.21239
G1 X81.531 Y92.026 E197.27803
G1 X82.094 Y91.792 E197.34292
G1 X82.688 Y91.65 E197.40793
G1 X83.318 Y91.6 E197.47519
G1 X151.582 Y91.6 E204.74069
G1 X152.212 Y91.65 E204.80796
G1 X152.806 Y91.792 E204.87296
G1 X153.369 Y92.026 E204.93785
G1 X153.895 Y92.348 E205.00349
G1 X154.358 Y92.742 E205.06819
G1 X154.752 Y93.205 E205.1329
G1 X155.074 Y93.731 E205.19854
G1 X155.308 Y94.294 E205.26343
G1 X155.45 Y94.888 E205.32843
G1 X155.5 Y95.518 E205.3957
G1 X155.5 Y128.282 E208.88285
G1 X155.45 Y128.912 E208.95011
G1 X155.308 Y129.506 E209.01512
G1 X155.074 Y130.069 E209.08001
G1 X154.752 Y130.595 E209.14565
G1 X154.358 Y131.058 E209.21035
G1 X153.895 Y131.452 E209.27506
G1 X153.369 Y131.774 E209.3407
G1 X152.806 Y132.008 E209.40559
G1 X152.212 Y132.15 E209.47059
G1 X151.582 Y132.2 E209.53786
G1 X149.4 Y132.2 E209.77009
G1 X149.4 Y143.4 E210.96213
G1 X147.2 Y143.4 E211.19629
G1 X147.2 Y132.2 E212.38833
G1 X128.733 Y132.2 E214.35382
G1 X128.733 Y143.4 E215.54586
G1 X126.533 Y143.4 E215.78001
G0 F9000 X126.803 Y143.13
G0 X126.772 Y131.864
G0 X126.607 Y131.699
;TYPE:SKIN
G1 F1500 X126.042 Y131.699 E215.80439
G1 X107.94 Y131.699 E216.58543
G1 X87.575 Y131.699 E217.4641
G1 X87.047 Y131.736 E217.48694
G1 X83.023 Y131.672 E217.66058
G1 X82.318 Y131.533 E217.69159
G1 X80.909 Y130.689 E217.76245
G1 X80.064 Y129.279 E217.83338
G1 X79.899 Y127.417 E217.91403
G1 X79.899 Y95.738 E219.28087
G1 X80.137 Y94.279 E219.34465
G1 X81.068 Y92.948 E219.41474
G1 X82.135 Y92.317 E219.46822
G1 X83.613 Y92.099 E219.53268
G1 X151.498 Y92.101 E222.46168
G1 X152.941 Y92.413 E222.52538
G1 X154.097 Y93.003 E222.58138
G1 X154.942 Y94.98 E222.67414
G1 X154.998 Y99.561 E222.87181
G1 X154.987 Y128.4 E224.11611
G1 X154.659 Y129.769 E224.17685
G1 X153.638 Y131.011 E224.24622
G1 X152.499 Y131.569 E224.30095
G1 X150.367 Y131.699 E224.39311
G1 X128.871 Y131.699 E225.32058
G1 X128.361 Y131.755 E225.34272
G0 F9000 X127.733 Y132.2
G1 F2700 E220.34272
;MESH:NONMESH
G0 F300 X127.733 Y132.2 Z1.28
G0 F9000 X126.761 Y131.972
G0 X115.538 Y131.972
G0 X86.6 Y132
;TIME_ELAPSED:133.144237
;LAYER:3
